!!!COM: Bach, Johann Sebastian
!!!CDT: 1685/3//-1750/7/28/
!!!OTL@@DE: Wo Gott der Herr nicht bei uns haelt
!!!AGN: 4-Part Chorale
!!!SCT: BH 336
!!!SCT: BWV 258
**harm	**root	**kern	**kern	**kern	**kern
!	!	!bass	!tenor	!alto	!soprno
*	*Iorgan	*Iorgan	*Iorgan	*Iorgan	*Iorgan
*	*	*clefF4	*clefF2	*clefG2	*clefG2
*M4/4	*M4/4	*M4/4	*M4/4	*M4/4	*M4/4
*met(c)	*met(c)	*met(c)	*met(c)	*met(c)	*met(c)
*MM60	*MM60	*MM60	*MM60	*MM60	*MM60
*k[f#c#g#]	*k[f#c#g#]	*k[f#c#g#]	*k[f#c#g#]	*k[f#c#g#]	*k[f#c#g#]
*f#:	*f#:	*f#:	*f#:	*f#:	*f#:
*>[A,A,B]	*>[A,A,B]	*>[A,A,B]	*>[A,A,B]	*>[A,A,B]	*>[A,A,B]
*>A	*>A	*>A	*>A	*>A	*>A
i	4BB	4F#	4A	8c#	4a
.	.	.	.	8d	.
=1	=1	=1	=1	=1	=1
IIIb	4DD	4C#	4A	4e	4a
VI	4GG	4D	4A	4d	8f#
.	.	.	.	.	8g#
IIIb	4DD	8C#	4A	4e	8a
.	.	8BB	.	.	8b
III	4DD	4AA	4A	4e	4cc#
=2	=2	=2	=2	=2	=2
V7b/-VII	4EE	4D#	4A	4f#	4b
V7/III	4AA	4E	4G#	8e	4b
.	.	.	.	8d	.
III;	4DD;	4AA;	4E;	4c#;	4a;
viiob/-VII	4GG#	4FF#	4F#	4d#	4a
=3	=3	=3	=3	=3	=3
-VII	4AA	4EE	4B	4e	4g#
iv	4EE	4BB	4B	4d	8f#
.	.	.	.	.	8g#
i	4BB	8F#	8A	4c#	4a
.	.	8E	8G#	.	.
iv	8EE	8D	4F#	8B	8b
ic	8BB	8C#	.	8c#	8a
=4	=4	=4	=4	=4	=4
ii7Db	4CC#	4BB	4F#	4d	2g#
V7	4FF#	4C#	8E#	4c#	.
.	.	.	8B	.	.
i	4BB	4FF#;	4A;	4c#;	4f#;
=:|!	=:|!	=:|!	=:|!	=:|!	=:|!
*>B	*>B	*>B	*>B	*>B	*>B
-VIIb	4AA	4GG#	4E	4e	4b
=5	=5	=5	=5	=5	=5
III	2DD	8AA	4E	4e	4cc#
.	.	8BB	.	.	.
.	.	8C#	8E	4e	4cc#
.	.	8D	8F#	.	.
-VII	4AA	4E	4G#	8B	8g#
.	.	.	.	8c#	8a
vii7o	4AA#	4E#	4G#	4d	4b
!!linebreak: 2
=6	=6	=6	=6	=6	=6
i	4BB	4F#	8A	4c#	4a
.	.	.	8G#	.	.
vii7o/V	4EE#	4BB#	4F#	4d#	4a
V	4FF#	4C#;	4c#;	4e#;	4g#;
i	4BB	8F#	4c#	4f#	4a
.	.	8E	.	.	.
=7	=7	=7	=7	=7	=7
V/-VII	2EE	8D#	4F#	8f#	4b
.	.	8C#	.	8e	.
.	.	4BB	4B	4d#	8f#
.	.	.	.	.	8g#
III	4DD	8C#	8E	4c#	4a
.	.	8D#	8F#	.	.
-VII	4AA	4E	4G#	4B	4g#
=8	=8	=8	=8	=8	=8
V7b/IV	4BB	4AA#	4c#	4e	4f#
V7/-VII	4EE	4BB	8B	4d#	4f#
.	.	.	8A	.	.
-VII	4AA	4EE;	4G#;	4B;	4e;
viiob/-VII	4GG#	4FF#	4A	4d#	4a
=9	=9	=9	=9	=9	=9
-VIIb	4AA	8GG#	4B	4e	4g#
.	.	8AA	.	.	.
V/-VII	4EE	4BB	4B	8d#	8f#
.	.	.	.	8e#	8g#
i	4BB	8F#	4c#	4f#	4a
.	.	8E	.	.	.
iv	8EE	8D	4F#	8f#	8b
ic	8BB	8C#	.	8c#	8a
=10	=10	=10	=10	=10	=10
ii7Db	4CC#	4BB	4F#	4d	2g#
V7	4FF#	4C#	4E#	8c#	.
.	.	.	.	8B	.
i;	4BB;	4FF#;	4C#;	4A;	4f#;
==	==	==	==	==	==
*-	*-	*-	*-	*-	*-
!!chor2scor: -l 2 -s 0.6 -o %b.pmx
!!!YEC: Copyright 2003 by Craig Stuart Sapp
!!!license: GNU General Public License (http://www.gnu.org/copyleft/gpl.html)
!!!SMA: 371 Bach Chorales, edited by Ludwig Erk, C.F. Peters
!!!PDT: 1850, 1865
!!!ONB: Harmony and Root analysis done manually by Craig Sapp
